packages/components/src/components/icon/common/ic-astro-pay-dark.svg

<svg width="128" height="80" viewBox="0 0 128 80" fill="none" xmlns="http://www.w3.org/2000/svg">
<path fill-rule="evenodd" clip-rule="evenodd" d="M80.7056 27.5615C83.1398 27.5615 85.0238 28.1231 86.2575 29.2299C87.4246 30.2705 88.0748 31.7902 88.0914 33.5247C88.0914 35.3087 87.5579 36.7623 86.4909 37.8525C85.1238 39.2566 82.9731 40.0329 80.4389 40.0329C80.0387 40.0329 79.6386 40.0164 79.2552 39.9834V47.0533H75.5039V28.0075L76.0874 27.9084C77.5212 27.6772 79.0718 27.5615 80.7056 27.5615ZM80.4889 36.7458C81.9227 36.7458 84.3235 36.3493 84.3235 33.6403C84.3235 31.2947 82.3729 30.7991 80.7723 30.7991C80.1388 30.7991 79.6386 30.8157 79.2718 30.8652V36.6797C79.6053 36.7292 80.0054 36.7458 80.4889 36.7458Z" fill="white"/>
<path fill-rule="evenodd" clip-rule="evenodd" d="M14 47.0534L20.6689 27.6938H24.4702L31.1557 47.0534H27.1544L25.2204 41.4041H19.8019L17.918 47.0534H14ZM22.2361 33.9213L20.7689 38.183H24.2701L22.8196 33.9708C22.7463 33.7738 22.6862 33.5833 22.6268 33.3951C22.5917 33.2837 22.5567 33.173 22.5195 33.0623C22.4572 33.2722 22.3856 33.4821 22.3116 33.6988C22.2866 33.7721 22.2614 33.8462 22.2361 33.9213Z" fill="white"/>
<path d="M35.7406 36.6801C35.7406 37.1921 35.9407 37.5225 37.7413 38.2328C39.3919 38.844 41.6093 39.9837 41.6093 42.7423C41.6093 45.4844 39.3752 47.3344 36.0574 47.3344C34.6069 47.3344 33.1398 46.971 32.0394 46.3268L31.5559 46.046L32.5562 42.924L33.3232 43.37C33.9567 43.7499 35.0737 44.1794 36.1074 44.1794C36.7743 44.1794 37.8914 44.0307 37.8914 42.9736C37.8914 42.4119 37.7413 41.9494 35.9574 41.2887C34.1568 40.6445 32.0227 39.3726 32.0227 36.9774C32.0227 34.3675 34.2068 32.4844 37.2245 32.4844C38.5749 32.4844 39.9087 32.8147 40.7923 33.3929L41.2591 33.6902L40.2421 36.7626L39.4752 36.2836C39.0751 36.0358 38.2415 35.6229 37.1911 35.6229C36.2908 35.6229 35.7406 36.0193 35.7406 36.6801Z" fill="white"/>
<path d="M47.4946 29.4116L43.76 30.5349V32.7483H41.7427V35.9364H43.76V42.263C43.76 44.0304 44.1101 45.2858 44.8604 46.1283C45.594 46.9046 46.6777 47.3506 47.9448 47.3506C49.0785 47.3506 49.8954 47.1194 50.2789 46.9872L50.779 46.822L50.579 43.6175L49.712 43.8652C49.4619 43.9313 49.1618 43.9974 48.545 43.9974C48.0948 43.9974 47.4779 43.9974 47.4779 42.1969V35.9364H50.8624V32.7483H47.4946V29.4116Z" fill="white"/>
<path d="M59.2983 32.5173L59.9819 32.6164L59.9986 36.3331L59.1316 36.1514C58.9649 36.1183 58.7815 36.1183 58.4814 36.1183C57.2143 36.1183 56.2807 37.0434 55.9972 38.53C55.9639 38.7778 55.9306 39.1412 55.9306 39.4881V47.0535H52.146V37.4729C52.146 35.8541 52.096 34.5987 52.0293 33.4919L51.9792 32.7486H55.4804L55.5304 33.7892C56.364 32.9468 57.4477 32.4678 58.6315 32.4678C58.8982 32.4678 59.0983 32.4843 59.2983 32.5173Z" fill="white"/>
<path fill-rule="evenodd" clip-rule="evenodd" d="M66.8675 32.4844C62.6495 32.4844 59.6985 35.5733 59.6985 40.0168C59.6985 44.3446 62.5494 47.351 66.6508 47.351C70.1186 47.351 73.8365 44.9888 73.8365 39.802C73.8532 35.4907 70.9856 32.4844 66.8675 32.4844ZM70.0186 39.8846C70.0186 42.3789 68.6515 44.1959 66.7842 44.1959C64.9169 44.1959 63.5664 42.3954 63.5664 39.9507C63.5664 38.3649 64.25 35.6724 66.8342 35.6724C69.3517 35.6394 70.0186 38.4145 70.0186 39.8846Z" fill="white"/>
<path fill-rule="evenodd" clip-rule="evenodd" d="M99.5784 43.2544V38.431C99.5784 34.5822 97.5611 32.4844 93.9265 32.4844C92.2426 32.4844 90.4754 32.9469 89.2583 33.7067L88.7748 34.0041L89.7918 36.9774L90.5587 36.4653C91.3423 35.9367 92.476 35.6229 93.5764 35.6229C94.3433 35.6064 94.8935 35.7881 95.2603 36.1349C95.5604 36.4323 95.7438 36.8783 95.8105 37.4399C92.8595 37.5225 90.7088 38.2163 89.375 39.5212C88.458 40.4297 87.9912 41.5695 87.9912 42.9405C87.9912 45.1375 89.5917 47.351 92.6928 47.351C94.0099 47.351 95.2436 46.938 96.2106 46.2112L96.3107 47.0701H99.8952L99.7618 46.2607C99.6451 45.4679 99.5784 44.4602 99.5784 43.2544ZM93.2763 44.2125C92.7094 44.2125 91.7758 44.0142 91.7758 42.6762C91.7758 42.1642 91.9259 41.7512 92.2593 41.4374C92.6928 41.0079 93.6764 40.5123 95.8772 40.4793V42.0155C95.8772 42.1311 95.8605 42.3294 95.8105 42.5276C95.5437 43.3039 94.7268 44.2125 93.2763 44.2125Z" fill="white"/>
<path d="M107.248 40.793L109.999 32.7485H114L110.082 42.8909C108.482 47.0535 107.264 49.6139 105.43 51.2327C103.897 52.5046 102.563 52.8184 102.179 52.8845L101.563 53.0001L100.596 49.7956L101.262 49.5808C101.579 49.4982 102.346 49.2174 103.096 48.5732L103.113 48.5567C103.78 48.0281 104.447 47.1361 104.897 46.1945C104.905 46.175 104.914 46.1527 104.923 46.1292C104.953 46.0532 104.988 45.9642 105.014 45.9137C105.014 45.8807 104.98 45.7816 104.897 45.6164L104.88 45.5834L99.7119 32.7485H103.83L106.831 40.826C106.914 41.0077 106.981 41.2058 107.048 41.404C107.081 41.3049 107.114 41.2018 107.148 41.0986C107.181 40.9954 107.214 40.8921 107.248 40.793Z" fill="white"/>
<path d="M27.8046 33.0127C30.2388 30.5515 34.3735 29.0813 38.8583 29.0813C40.6089 29.0813 42.3095 29.2961 43.9267 29.7421L44.0601 29.7751L46.9277 28.9161L45.6439 28.4206C43.1931 27.4956 40.3755 27 37.4745 27C33.2565 27 29.3218 28.0076 26.4042 29.8412L26.0874 30.0394L27.3045 33.5578L27.8046 33.0127Z" fill="#FF0000"/>
</svg>

<svg width="128" height="80" fill="none" xmlns="http://www.w3.org/2000/svg"><path fill-rule="evenodd" clip-rule="evenodd" d="M80.706 27.561c2.434 0 4.318.562 5.551 1.669 1.168 1.04 1.818 2.56 1.834 4.295 0 1.784-.533 3.237-1.6 4.328-1.367 1.404-3.518 2.18-6.052 2.18-.4 0-.8-.017-1.184-.05v7.07h-3.751V28.008l.583-.1a29.139 29.139 0 0 1 4.619-.347Zm-.217 9.185c1.434 0 3.834-.397 3.834-3.106 0-2.345-1.95-2.84-3.55-2.84-.634 0-1.134.016-1.501.065v5.815c.333.05.733.066 1.217.066ZM14 47.053l6.669-19.36h3.801l6.686 19.36h-4.002l-1.934-5.649h-5.418l-1.884 5.65H14Zm8.236-13.132-1.467 4.262h3.501l-1.45-4.212c-.074-.197-.134-.388-.193-.576-.035-.111-.07-.222-.107-.333-.063.21-.134.42-.208.637l-.076.222Z" fill="#fff"/><path d="M35.74 36.68c0 .512.2.843 2.001 1.553 1.65.611 3.868 1.75 3.868 4.51 0 2.741-2.234 4.591-5.552 4.591-1.45 0-2.917-.363-4.018-1.007l-.483-.281 1-3.122.767.446c.634.38 1.75.81 2.784.81.667 0 1.784-.15 1.784-1.206 0-.562-.15-1.025-1.934-1.685-1.8-.645-3.934-1.916-3.934-4.312 0-2.61 2.184-4.493 5.201-4.493 1.35 0 2.685.33 3.568.909l.467.297-1.017 3.073-.767-.48a4.446 4.446 0 0 0-2.284-.66c-.9 0-1.45.396-1.45 1.057ZM47.495 29.412l-3.735 1.123v2.213h-2.017v3.188h2.017v6.327c0 1.767.35 3.023 1.1 3.865.734.777 1.818 1.223 3.085 1.223 1.133 0 1.95-.232 2.334-.364l.5-.165-.2-3.205-.867.248c-.25.066-.55.132-1.167.132-.45 0-1.067 0-1.067-1.8v-6.26h3.384v-3.189h-3.367v-3.336ZM59.298 32.517l.684.1.017 3.716-.867-.182c-.167-.033-.35-.033-.65-.033-1.268 0-2.201.925-2.485 2.412a7.633 7.633 0 0 0-.066.958v7.566h-3.785v-9.581c0-1.619-.05-2.874-.117-3.981l-.05-.743h3.501l.05 1.04c.834-.842 1.918-1.321 3.102-1.321.266 0 .466.016.666.05Z" fill="#fff"/><path fill-rule="evenodd" clip-rule="evenodd" d="M66.868 32.484c-4.218 0-7.17 3.09-7.17 7.533 0 4.328 2.851 7.334 6.953 7.334 3.468 0 7.186-2.362 7.186-7.549.016-4.311-2.851-7.318-6.97-7.318Zm3.15 7.4c0 2.495-1.367 4.312-3.234 4.312s-3.218-1.8-3.218-4.245c0-1.586.684-4.279 3.268-4.279 2.518-.033 3.185 2.742 3.185 4.213ZM99.578 43.254v-4.823c0-3.849-2.017-5.947-5.651-5.947-1.684 0-3.452.463-4.669 1.223l-.483.297 1.017 2.973.767-.512c.783-.528 1.917-.842 3.017-.842.767-.017 1.318.165 1.684.512.3.297.484.743.55 1.305-2.95.083-5.101.776-6.435 2.081-.917.909-1.384 2.048-1.384 3.42 0 2.197 1.6 4.41 4.702 4.41 1.317 0 2.55-.413 3.518-1.14l.1.86h3.584l-.133-.81c-.117-.793-.184-1.8-.184-3.007Zm-6.302.959c-.567 0-1.5-.199-1.5-1.537 0-.512.15-.925.483-1.239.434-.43 1.417-.925 3.618-.958v1.537c0 .115-.016.313-.066.512-.267.776-1.084 1.684-2.535 1.684Z" fill="#fff"/><path d="m107.248 40.793 2.751-8.044H114l-3.918 10.142c-1.6 4.163-2.818 6.723-4.652 8.342-1.533 1.272-2.867 1.585-3.251 1.652l-.616.115-.967-3.204.666-.215c.317-.083 1.084-.364 1.834-1.008l.017-.016c.667-.529 1.334-1.42 1.784-2.363l.026-.065c.03-.076.065-.165.091-.215 0-.033-.034-.132-.117-.298l-.017-.033-5.168-12.834h4.118l3.001 8.077c.083.182.15.38.217.578l.1-.305c.033-.104.066-.207.1-.306Z" fill="#fff"/><path d="M27.805 33.013c2.434-2.461 6.569-3.932 11.053-3.932 1.75 0 3.452.215 5.069.661l.133.033 2.868-.859-1.284-.495c-2.45-.925-5.268-1.421-8.17-1.421-4.217 0-8.152 1.008-11.07 2.841l-.317.198 1.218 3.519.5-.545Z" fill="red"/></svg>
